material/.icons/material/alien.svg

<svg xmlns="http://www.w3.org/2000/svg" viewBox="0 0 24 24"><path d="M12 3c4.97 0 9 3.58 9 8s-6 10-9 10-9-5.58-9-10 4.03-8 9-8m-1.69 7.93C9.29 9.29 7.47 8.58 6.25 9.34c-1.22.76-1.38 2.71-.36 4.35 1.03 1.64 2.85 2.35 4.07 1.59 1.22-.78 1.37-2.71.35-4.35m3.38 0c-1.02 1.64-.87 3.57.35 4.35 1.22.76 3.04.05 4.07-1.59 1.02-1.64.86-3.59-.36-4.35-1.22-.76-3.04-.05-4.06 1.59M12 17.75c-2 0-2.5-.75-2.5-.75 0 .03.5 2 2.5 2s2.5-2 2.5-2-.5.75-2.5.75z"/></svg>

<?xml version="1.0" encoding="UTF-8"?><!DOCTYPE svg PUBLIC "-//W3C//DTD SVG 1.1//EN" "http://www.w3.org/Graphics/SVG/1.1/DTD/svg11.dtd"><svg xmlns="http://www.w3.org/2000/svg" xmlns:xlink="http://www.w3.org/1999/xlink" version="1.1" id="mdi-alien" width="24" height="24" viewBox="0 0 24 24"><path d="M12,3C16.97,3 21,6.58 21,11C21,15.42 15,21 12,21C9,21 3,15.42 3,11C3,6.58 7.03,3 12,3M10.31,10.93C9.29,9.29 7.47,8.58 6.25,9.34C5.03,10.1 4.87,12.05 5.89,13.69C6.92,15.33 8.74,16.04 9.96,15.28C11.18,14.5 11.33,12.57 10.31,10.93M13.69,10.93C12.67,12.57 12.82,14.5 14.04,15.28C15.26,16.04 17.08,15.33 18.11,13.69C19.13,12.05 18.97,10.1 17.75,9.34C16.53,8.58 14.71,9.29 13.69,10.93M12,17.75C10,17.75 9.5,17 9.5,17C9.5,17.03 10,19 12,19C14,19 14.5,17 14.5,17C14.5,17 14,17.75 12,17.75Z" /></svg>
